X:1
T:Lonach Hall
T:Lonach Hall
T:Alexander Walker
C:Alexander Walker
L:1/8
M:4/4
K:C
V:1 treble 
V:1
 A | G>E c>E D>C A,2 | G>E c>G A/A/A A2 | G>E c>E D>C A,>f | g<cg>e (d2 c) :| e/f/ | %6
 g>cg>e g<ce>f | a<da>g a<df<a | g<cg>e g<ce<g | a<gc'>e{e} d2 ce/f/ | g<cg>e g<ce<g | %11
 a<da>g a<df<a | g<ed>e c>GA>c | G<E{E} c>E D2 C || %14

